src/assets/images/illustrations/success-pink.svg

<svg width="166" height="188" viewBox="0 0 166 188" fill="none" xmlns="http://www.w3.org/2000/svg">
<circle cx="83" cy="83" r="83" fill="#F6ECF3"/>
<path d="M40.0913 178.727C40.0186 178.938 39.9888 179.162 40.0037 179.385C40.0187 179.608 40.0779 179.825 40.1781 180.025C40.2783 180.225 40.4174 180.403 40.5873 180.549C40.7573 180.694 40.9546 180.805 41.1678 180.873L59.0317 186.936C59.2456 187.009 59.4719 187.039 59.6975 187.024C59.9231 187.01 60.1436 186.951 60.3463 186.851C60.5491 186.752 60.73 186.613 60.8789 186.443C61.0277 186.274 61.1416 186.076 61.2137 185.863L78.3793 135.506C78.4524 135.292 78.4825 135.067 78.468 134.842C78.4534 134.617 78.3944 134.397 78.2944 134.195C78.1944 133.993 78.0553 133.812 77.8851 133.664C77.7149 133.515 77.5171 133.402 77.3028 133.33L59.4389 127.267C59.0066 127.128 58.5369 127.162 58.1295 127.363C57.722 127.563 57.409 127.914 57.2569 128.341L40.0913 178.727Z" fill="#EFC5DE"/>
<path d="M57.2538 156.449L55.1008 158.595L52.1332 158.044L53.5006 160.742L52.0459 163.381L55.0426 162.917L57.1374 165.093L57.6029 162.134L60.3377 160.829L57.632 159.436L57.2538 156.449Z" fill="#DA6CA2"/>
<path d="M69.5053 132.315L66.6832 135.128L62.8136 134.403L64.5884 137.913L62.6973 141.394L66.625 140.785L69.3598 143.628L69.9708 139.741L73.5494 138.029L70.029 136.231L69.5053 132.315Z" fill="#DA6CA2"/>
<path d="M68.3687 156.1L66.5648 152.59L70.4635 153.287L73.2565 150.502L70.3762 158.943L66.4775 159.581L68.3687 156.1Z" fill="#DA6CA2"/>
<path d="M45.3572 163.932L45.8809 167.848L49.4013 169.647L45.8227 171.329L45.2117 175.245L42.4768 172.374L42.2441 172.403L45.008 164.252L45.3572 163.932Z" fill="#DA6CA2"/>
<path d="M48.1777 178.552L51.9309 179.249L54.6366 176.551L55.1312 180.322L58.5353 182.062L55.0731 183.687L54.7821 185.514L49.0215 183.571L49.8943 181.946L48.1777 178.552Z" fill="#DA6CA2"/>
<path d="M62.6388 170.053L61.3295 171.33L59.5548 170.982L60.3694 172.606L59.4966 174.201L61.3004 173.911L62.5515 175.246L62.8424 173.447L64.5008 172.664L62.8715 171.852L62.6388 170.053Z" fill="#DA6CA2"/>
<path d="M56.9051 141.307L55.1304 143.105L52.6283 142.641L53.763 144.904L52.541 147.137L55.0722 146.731L56.8179 148.588L57.2252 146.093L59.5236 144.991L57.2543 143.83L56.9051 141.307Z" fill="#DA6CA2"/>
<path d="M123.42 63.8567L118.066 66.4093L112.946 63.4506L113.702 69.3101L109.309 73.2841L115.157 74.3284L117.572 79.7528L120.394 74.5605L126.271 73.9223L122.198 69.6292L123.42 63.8567Z" fill="#DA6CA2"/>
<path d="M41.0214 69.8026L41.9815 71.8042L40.876 73.7477L43.0871 73.4576L44.5709 75.111L44.9783 72.9065L47.0149 72.0072L45.0655 70.963L44.8328 68.7294L43.2035 70.2668L41.0214 69.8026Z" fill="#DA6CA2"/>
<path d="M84.8951 126.194L86.117 128.775L84.6914 131.27L87.5426 130.864L89.4629 132.981L89.9866 130.168L92.605 129.007L90.0738 127.644L89.7538 124.801L87.6881 126.774L84.8951 126.194Z" fill="#DA6CA2"/>
<path d="M55.8003 47.6412L58.5934 48.4244L59.5826 51.1511L61.1536 48.7145L64.0631 48.6565L62.2301 46.3939L63.0739 43.6092L60.3681 44.6534L57.9824 43L58.0987 45.8718L55.8003 47.6412Z" fill="#DA6CA2"/>
<path d="M123.124 100.232L124.026 96.5194L127.605 95.1271L124.317 93.1256L124.113 89.2966L121.204 91.7912L117.451 90.805L118.935 94.3439L116.84 97.5637L120.709 97.2736L123.124 100.232Z" fill="#DA6CA2"/>
<path d="M45.1806 97.0119L44.6569 100.174L41.7184 101.537L44.5696 103.017L44.9478 106.207L47.2463 103.945L50.3885 104.583L48.9919 101.711L50.563 98.8974L47.3627 99.3616L45.1806 97.0119Z" fill="#DA6CA2"/>
<path d="M77.0397 85.4379L76.6615 87.5844L74.6831 88.4837L76.6033 89.4989L76.8652 91.6745L78.4362 90.1371L80.5892 90.5722L79.6 88.6287L80.6765 86.7142L78.5235 87.0333L77.0397 85.4379Z" fill="#DA6CA2"/>
<path d="M90.3955 46.2196L90.9483 49.9036L88.2426 52.4272L91.9084 53.0364L93.4795 56.3723L95.1961 53.0944L98.862 52.6303L96.2726 49.9906L96.9708 46.3646L93.6541 48.0181L90.3955 46.2196Z" fill="#DA6CA2"/>
<path d="M67.5559 126.426C67.1195 126.571 69.156 116.679 68.9523 106.382C68.7487 97.6793 67.9341 87.8168 67.5559 81.145C66.7412 67.0473 64.4719 50.8321 68.196 50.6C71.92 50.368 71.4254 69.1359 71.4254 80.0137C71.4254 90.8916 68.6324 126.049 67.5559 126.426Z" fill="#EFC5DE"/>
<path d="M63.1924 125.498C62.9305 125.672 62.9305 118.275 61.243 110.994C59.8465 104.758 57.81 97.8249 56.5589 93.0677C53.8822 83.0601 49.8672 71.7181 52.5148 71.0219C55.1623 70.3257 57.5481 83.8723 59.1774 91.6753C60.8066 99.4784 63.9197 125.092 63.1924 125.498Z" fill="#EFC5DE"/>
<path d="M74.451 128.776C74.5965 129.037 78.6115 123.206 83.9357 118.275C88.4453 114.127 93.8278 109.747 97.4064 106.672C104.942 100.203 114.252 93.4443 112.564 91.4718C110.877 89.4993 101.596 98.8688 96.0971 104.177C90.5983 109.486 73.9855 128.166 74.451 128.776Z" fill="#EFC5DE"/>
<path d="M71.5415 126.832C71.5415 126.832 102.294 66.4087 106.804 59.1568C111.313 51.9049 105.436 50.1644 103.312 54.3415C101.189 58.5186 78.6114 106.903 71.5415 126.832Z" fill="#EFC5DE"/>
<path d="M52.1376 61.1296C52.0069 61.5182 52.0343 61.9425 52.2138 62.3112C52.3933 62.68 52.7107 62.964 53.0977 63.1021C53.4914 63.2233 53.9168 63.1884 54.2854 63.0047C54.6539 62.8209 54.9371 62.5026 55.0761 62.1159C55.1966 61.7273 55.1607 61.3072 54.9761 60.9445C54.7915 60.5818 54.4726 60.3049 54.0869 60.1724C53.7011 60.0431 53.2795 60.0712 52.9144 60.2505C52.5492 60.4298 52.27 60.7458 52.1376 61.1296Z" fill="#DA6CA2"/>
<path d="M87.1961 101.334C87.1106 101.529 87.0666 101.74 87.0669 101.953C87.0672 102.166 87.1119 102.376 87.198 102.571C87.2842 102.765 87.41 102.94 87.5674 103.084C87.7248 103.228 87.9105 103.337 88.1126 103.406C88.3147 103.474 88.5288 103.5 88.7414 103.482C88.9541 103.464 89.1607 103.402 89.348 103.3C89.5354 103.198 89.6994 103.058 89.8298 102.889C89.9602 102.721 90.0541 102.527 90.1055 102.321C90.1737 102.13 90.2029 101.928 90.1913 101.727C90.1798 101.525 90.1277 101.327 90.0381 101.146C89.9485 100.965 89.8234 100.803 89.6701 100.671C89.5167 100.539 89.3382 100.439 89.1453 100.377C88.7595 100.248 88.3381 100.276 87.9729 100.455C87.6077 100.635 87.3285 100.951 87.1961 101.334Z" fill="#DA6CA2"/>
<path d="M96.6506 116.622C96.4911 117.063 96.4681 117.542 96.5843 117.997C96.7006 118.452 96.9509 118.862 97.3029 119.174C97.6549 119.486 98.0925 119.685 98.5593 119.747C99.0261 119.808 99.5007 119.729 99.9219 119.519C100.343 119.309 100.691 118.978 100.922 118.569C101.153 118.159 101.255 117.691 101.217 117.223C101.178 116.755 100.999 116.31 100.704 115.944C100.408 115.578 100.01 115.309 99.56 115.171C98.981 114.994 98.3558 115.046 97.8141 115.316C97.2723 115.586 96.8557 116.053 96.6506 116.622Z" fill="#DA6CA2"/>
<path d="M53.5898 108.035C53.6293 107.904 53.6951 107.782 53.783 107.677C53.871 107.572 53.9794 107.485 54.1017 107.423C54.224 107.361 54.3577 107.324 54.4948 107.314C54.6318 107.305 54.7693 107.323 54.8991 107.368C55.1505 107.466 55.3558 107.654 55.4744 107.896C55.5929 108.138 55.6161 108.415 55.5392 108.673C55.5003 108.804 55.4345 108.926 55.346 109.03C55.2575 109.134 55.1483 109.219 55.0252 109.279C54.9021 109.339 54.7679 109.373 54.631 109.378C54.4941 109.384 54.3575 109.361 54.2299 109.311C53.9763 109.225 53.7669 109.043 53.6471 108.804C53.5273 108.565 53.5067 108.289 53.5898 108.035Z" fill="#DA6CA2"/>
<path d="M78.8433 57.678C78.8828 57.5469 78.9484 57.425 79.0364 57.3198C79.1244 57.2146 79.2328 57.1283 79.3551 57.0659C79.4775 57.0036 79.6111 56.9666 79.7481 56.9571C79.8851 56.9477 80.0227 56.9659 80.1525 57.0108C80.2814 57.0532 80.4006 57.121 80.5029 57.21C80.6052 57.299 80.6887 57.4075 80.7483 57.5291C80.8079 57.6507 80.8425 57.783 80.8501 57.9182C80.8577 58.0534 80.8382 58.1887 80.7925 58.3162C80.7536 58.4472 80.6879 58.5687 80.5994 58.673C80.5109 58.7773 80.4016 58.8621 80.2785 58.9221C80.1554 58.9821 80.0212 59.0159 79.8843 59.0215C79.7474 59.027 79.6109 59.0042 79.4834 58.9543C79.2297 58.8683 79.0203 58.6861 78.9005 58.4472C78.7806 58.2083 78.7601 57.932 78.8433 57.678Z" fill="#DA6CA2"/>
<path d="M82.8913 67.8601C82.7239 68.3719 82.7642 68.9286 83.0035 69.4111C83.2427 69.8937 83.662 70.2636 84.1714 70.4418C84.6808 70.6076 85.2351 70.5666 85.7144 70.3277C86.1936 70.0888 86.5592 69.6712 86.7317 69.1654C86.8187 68.916 86.8553 68.6519 86.8394 68.3883C86.8236 68.1246 86.7555 67.8667 86.6392 67.6294C86.5229 67.3921 86.3607 67.1802 86.1619 67.0057C85.963 66.8312 85.7315 66.6977 85.4807 66.6128C84.9714 66.4367 84.4128 66.4691 83.9274 66.7029C83.442 66.9367 83.0694 67.3529 82.8913 67.8601Z" fill="#DA6CA2"/>
<path d="M109.917 104.235C109.824 104.512 109.815 104.81 109.891 105.092C109.968 105.374 110.127 105.627 110.347 105.819C110.568 106.011 110.84 106.134 111.131 106.172C111.421 106.21 111.716 106.162 111.979 106.033C112.242 105.904 112.46 105.7 112.607 105.447C112.754 105.195 112.823 104.904 112.804 104.613C112.786 104.321 112.682 104.042 112.504 103.81C112.327 103.577 112.085 103.402 111.808 103.307C111.623 103.243 111.427 103.217 111.231 103.229C111.035 103.241 110.844 103.292 110.668 103.378C110.492 103.464 110.335 103.585 110.206 103.732C110.077 103.879 109.979 104.05 109.917 104.235Z" fill="#DA6CA2"/>
<path d="M100.17 83.9301C100.039 84.2177 99.9708 84.5292 99.9683 84.8448C99.9659 85.1603 100.03 85.4729 100.156 85.7624C100.282 86.0519 100.467 86.312 100.7 86.5258C100.932 86.7397 101.207 86.9027 101.507 87.0043C101.807 87.1059 102.124 87.1439 102.439 87.1158C102.755 87.0878 103.061 86.9943 103.337 86.8414C103.614 86.6885 103.856 86.4795 104.047 86.2279C104.238 85.9763 104.374 85.6877 104.447 85.3805C104.552 85.099 104.599 84.7993 104.585 84.4992C104.572 84.1991 104.497 83.9049 104.367 83.6341C104.237 83.3632 104.053 83.1215 103.827 82.9231C103.6 82.7248 103.336 82.574 103.05 82.4797C102.766 82.3847 102.465 82.3469 102.166 82.3685C101.866 82.3901 101.574 82.4707 101.306 82.6056C101.038 82.7405 100.8 82.927 100.605 83.1543C100.41 83.3817 100.262 83.6454 100.17 83.9301Z" fill="#DA6CA2"/>
<path d="M116.522 55.3865C116.426 55.6643 116.416 55.964 116.492 56.2477C116.568 56.5313 116.727 56.7859 116.949 56.9791C117.171 57.1724 117.445 57.2955 117.737 57.3328C118.029 57.3701 118.326 57.3199 118.589 57.1886C118.853 57.0573 119.071 56.8508 119.216 56.5955C119.362 56.3401 119.427 56.0474 119.405 55.7547C119.383 55.4619 119.274 55.1823 119.093 54.9514C118.911 54.7206 118.664 54.5489 118.384 54.4583C118.013 54.3384 117.611 54.3685 117.262 54.5421C116.914 54.7158 116.648 55.0191 116.522 55.3865Z" fill="#DA6CA2"/>
</svg>

<svg width="166" height="188" fill="none" xmlns="http://www.w3.org/2000/svg"><circle cx="83" cy="83" r="83" fill="#F6ECF3"/><path d="M40.091 178.727a1.678 1.678 0 0 0 1.077 2.146l17.864 6.063a1.71 1.71 0 0 0 1.314-.085 1.7 1.7 0 0 0 .868-.988l17.165-50.357a1.71 1.71 0 0 0-1.076-2.176l-17.864-6.063a1.75 1.75 0 0 0-2.182 1.074L40.09 178.727Z" fill="#EFC5DE"/><path d="m57.254 156.449-2.153 2.146-2.968-.551 1.368 2.698-1.455 2.639 2.997-.464 2.094 2.176.466-2.959 2.735-1.305-2.706-1.393-.378-2.987ZM69.505 132.315l-2.822 2.813-3.87-.725 1.775 3.51-1.89 3.481 3.927-.609 2.735 2.843.61-3.887 3.58-1.712-3.521-1.798-.524-3.916ZM68.369 156.1l-1.804-3.51 3.898.697 2.794-2.785-2.88 8.441-3.9.638 1.892-3.481ZM45.357 163.932l.524 3.916 3.52 1.799-3.578 1.682-.611 3.916-2.735-2.871-.233.029 2.764-8.151.35-.32ZM48.178 178.552l3.753.697 2.706-2.698.494 3.771 3.404 1.74-3.462 1.625-.29 1.827-5.761-1.943.872-1.625-1.716-3.394ZM62.639 170.053l-1.31 1.277-1.774-.348.814 1.624-.872 1.595 1.803-.29 1.252 1.335.29-1.799 1.659-.783-1.63-.812-.232-1.799ZM56.905 141.307l-1.775 1.798-2.502-.464 1.135 2.263-1.222 2.233 2.531-.406 1.746 1.857.407-2.495 2.299-1.102-2.27-1.161-.349-2.523ZM123.42 63.857l-5.354 2.552-5.12-2.958.756 5.86-4.393 3.973 5.848 1.044 2.415 5.425 2.822-5.192 5.877-.639-4.073-4.293 1.222-5.772ZM41.021 69.803l.96 2.001-1.105 1.944 2.211-.29 1.484 1.653.407-2.205 2.037-.899-1.95-1.044-.232-2.234-1.63 1.538-2.182-.464ZM84.895 126.194l1.222 2.581-1.426 2.495 2.852-.406 1.92 2.117.524-2.813 2.618-1.161-2.531-1.363-.32-2.843-2.066 1.973-2.793-.58ZM55.8 47.641l2.793.783.99 2.727 1.57-2.437 2.91-.057-1.833-2.263.844-2.785-2.706 1.044L57.982 43l.117 2.872-2.299 1.77ZM123.124 100.232l.902-3.713 3.579-1.392-3.288-2.001-.204-3.83-2.909 2.495-3.753-.986 1.484 3.539-2.095 3.22 3.869-.29 2.415 2.958ZM45.18 97.012l-.523 3.162-2.939 1.363 2.852 1.48.378 3.19 2.298-2.262 3.142.638-1.396-2.872 1.571-2.814-3.2.465-2.182-2.35ZM77.04 85.438l-.379 2.146-1.978.9 1.92 1.015.262 2.175 1.571-1.537 2.153.435-.989-1.943 1.077-1.915-2.154.32-1.483-1.596ZM90.395 46.22l.553 3.684-2.705 2.523 3.665.61 1.572 3.335 1.716-3.278 3.666-.464-2.59-2.64.699-3.625-3.317 1.653-3.258-1.798Z" fill="#DA6CA2"/><path d="M67.556 126.426c-.436.145 1.6-9.747 1.396-20.044-.203-8.703-1.018-18.565-1.396-25.237-.815-14.098-3.084-30.313.64-30.545 3.724-.232 3.23 18.536 3.23 29.414s-2.794 46.035-3.87 46.412ZM63.192 125.498c-.261.174-.261-7.223-1.949-14.504-1.397-6.236-3.433-13.17-4.684-17.926-2.677-10.008-6.692-21.35-4.044-22.046 2.647-.696 5.033 12.85 6.662 20.653 1.63 7.803 4.743 33.417 4.015 33.823ZM74.451 128.776c.146.261 4.16-5.57 9.485-10.501 4.51-4.148 9.892-8.528 13.47-11.603 7.536-6.469 16.846-13.228 15.158-15.2-1.687-1.973-10.968 7.397-16.467 12.705-5.499 5.309-22.111 23.989-21.646 24.599ZM71.541 126.832s30.753-60.423 35.263-67.675c4.509-7.252-1.368-8.993-3.492-4.815-2.123 4.177-24.7 52.561-31.77 72.49Z" fill="#EFC5DE"/><path d="M52.138 61.13a1.562 1.562 0 0 0 .96 1.972 1.605 1.605 0 0 0 1.978-.986 1.562 1.562 0 0 0-.99-1.944 1.546 1.546 0 0 0-1.948.958ZM87.196 101.334a1.537 1.537 0 0 0 1.545 2.148 1.54 1.54 0 0 0 1.365-1.161 1.508 1.508 0 0 0-.96-1.944 1.543 1.543 0 0 0-1.95.957ZM96.65 116.622a2.34 2.34 0 0 0 .653 2.552 2.362 2.362 0 0 0 3.619-.605 2.349 2.349 0 0 0-1.362-3.398 2.365 2.365 0 0 0-1.746.145 2.35 2.35 0 0 0-1.163 1.306ZM53.59 108.035a1.014 1.014 0 0 1 .905-.721c.137-.009.274.009.404.054a1.074 1.074 0 0 1 .64 1.305.983.983 0 0 1-.908.705.982.982 0 0 1-.401-.067 1.017 1.017 0 0 1-.64-1.276ZM78.843 57.678a1.014 1.014 0 0 1 .905-.72c.137-.01.275.008.404.053a1.02 1.02 0 0 1 .698.907c.008.135-.012.27-.057.398a.985.985 0 0 1-.909.706.99.99 0 0 1-.4-.068 1.017 1.017 0 0 1-.64-1.276ZM82.891 67.86a2.053 2.053 0 0 0 .112 1.551c.24.483.659.853 1.168 1.03a2.032 2.032 0 0 0 2.468-2.812 2.002 2.002 0 0 0-1.158-1.016 2.042 2.042 0 0 0-2.59 1.247ZM109.917 104.235a1.481 1.481 0 0 0 .43 1.584 1.488 1.488 0 0 0 2.26-.372c.147-.252.216-.543.197-.834a1.474 1.474 0 0 0-1.573-1.384 1.49 1.49 0 0 0-1.025.503 1.47 1.47 0 0 0-.289.503ZM100.17 83.93a2.248 2.248 0 0 0-.014 1.832 2.26 2.26 0 0 0 1.351 1.242 2.274 2.274 0 0 0 2.94-1.624 2.225 2.225 0 0 0-.08-1.746 2.231 2.231 0 0 0-1.317-1.154 2.273 2.273 0 0 0-2.88 1.45ZM116.522 55.386a1.47 1.47 0 0 0 .427 1.593 1.486 1.486 0 0 0 2.267-.383 1.483 1.483 0 1 0-2.694-1.209Z" fill="#DA6CA2"/></svg>
